assets/images/payment-method-icons/maestro.svg

<svg fill="none" height="35" viewBox="0 0 51 35" width="51" xmlns="http://www.w3.org/2000/svg"><rect fill="#fff" height="34" rx="3.5" stroke="#f3f3f3" width="49.6897" x=".5" y=".5"/><path d="m29.9708 22.8244h-8.6661v-15.47088h8.6661z" fill="#6c6bbd"/><path d="m21.8549 15.0891c0-3.1384 1.4792-5.93389 3.7826-7.73545-1.6844-1.31739-3.8103-2.1037-6.1207-2.1037-5.4697 0-9.90352 4.40506-9.90352 9.83915 0 5.4341 4.43382 9.8391 9.90352 9.8391 2.3104 0 4.4363-.7863 6.1207-2.1037-2.3034-1.8015-3.7826-4.5971-3.7826-7.7354z" fill="#eb001b"/><path d="m41.6626 15.0891c0 5.4341-4.4338 9.8391-9.9035 9.8391-2.3104 0-4.4363-.7863-6.1214-2.1037 2.3041-1.8015 3.7833-4.5971 3.7833-7.7354 0-3.1384-1.4792-5.93389-3.7833-7.73545 1.6851-1.31739 3.811-2.1037 6.1214-2.1037 5.4697 0 9.9035 4.40506 9.9035 9.83915z" fill="#0099df"/><g fill="#231f20"><path d="m32.9036 27.1956c.1152 0 .2809.0219.4074.0713l-.1763.5355c-.1209-.0494-.2418-.0657-.3577-.0657-.374 0-.561.2402-.561.6718v1.465h-.5724v-2.6122h.5667v.3171c.1486-.2295.3633-.3828.6933-.3828z"/><path d="m30.7887 27.7807h-.9351v1.1804c0 .2621.0932.4373.3797.4373.1487 0 .3357-.0495.5057-.1477l.165.4861c-.1814.1257-.4673.2027-.7147.2027-.677 0-.9131-.361-.9131-.9678v-1.191h-.534v-.5192h.534v-.7925h.5774v.7925h.9351z"/><path clip-rule="evenodd" d="m24.1754 27.1958c.7374 0 1.2437.5574 1.2493 1.3718 0 .0757-.0055.1459-.0112.2166l-.0001.0017h-1.9527c.0825.4698.4181.6393.7865.6393.2638 0 .5447-.0982.7644-.2733l.2809.421c-.3193.2677-.682.3659-1.0781.3659-.7871 0-1.3482-.5411-1.3482-1.3712 0-.8144.539-1.3718 1.3092-1.3718zm-.0106.5078c-.4074 0-.6379.2571-.699.6343h1.3646c-.0604-.4047-.2972-.6343-.6656-.6343z" fill-rule="evenodd"/><path d="m27.9386 27.9283c-.1593-.0988-.4836-.2245-.8193-.2245-.3136 0-.5006.1151-.5006.3065 0 .1745.1977.2239.4452.2565l.2695.0381c.5724.0826.9188.3228.9188.7819 0 .4973-.4402.8527-1.199.8527-.4295 0-.8255-.1095-1.1391-.3391l.2695-.4429c.1927.1477.4792.2734.8753.2734.3904 0 .5995-.1145.5995-.3172 0-.147-.1486-.2295-.4622-.2727l-.2696-.0382c-.5887-.0825-.908-.3446-.908-.7706 0-.5192.4295-.8364 1.0951-.8364.4181 0 .7978.0932 1.0724.2734z"/><path clip-rule="evenodd" d="m35.561 27.3015c-.1738-.0707-.3628-.1057-.5668-.1057s-.3929.035-.5667.1057c-.1738.0701-.3231.167-.449.2903-.1259.1232-.2248.269-.2966.4366-.0718.1683-.1077.3509-.1077.548 0 .197.0359.3797.1077.5479.0718.1677.1707.3141.2966.4373s.2752.2196.449.2903c.1738.07.3627.105.5667.105s.393-.035.5668-.105c.1738-.0707.3243-.1671.4508-.2903.1272-.1232.2261-.2696.2979-.4373.0718-.1682.1077-.3509.1077-.5479 0-.1971-.0359-.3797-.1077-.548-.0718-.1676-.1707-.3134-.2979-.4366-.1265-.1233-.277-.2202-.4508-.2903zm-.895.4954c.1014-.0406.2103-.0613.3281-.0613.1177 0 .2273.0207.328.0613.1014.0413.1896.0989.2633.1727.0749.0738.1328.1626.1756.2658.0422.1032.063.2171.063.3409 0 .1245-.0208.2378-.063.341-.0428.1032-.1007.192-.1756.2658-.0737.0738-.1619.1314-.2633.1727-.1007.0413-.2103.0613-.328.0613-.1178 0-.2267-.02-.3281-.0613-.1008-.0413-.1883-.0989-.262-.1727s-.1316-.1626-.1738-.2658-.063-.2165-.063-.341c0-.1238.0208-.2377.063-.3409s.1001-.192.1738-.2658.1612-.1314.262-.1727z" fill-rule="evenodd"/><path clip-rule="evenodd" d="m22.2524 27.2615v1.3061 1.3061h-.5718v-.3171c-.182.2352-.4566.3828-.8306.3828-.7374 0-1.3148-.5742-1.3148-1.3718 0-.7982.5774-1.3718 1.3148-1.3718.374 0 .6486.1476.8306.3828v-.3171zm-1.3313.4697c-.4949 0-.7978.3772-.7978.8363 0 .4592.3029.8358.7978.8358.4729 0 .7922-.3604.7922-.8358s-.3193-.8363-.7922-.8363z" fill-rule="evenodd"/><path d="m19.0293 29.8735v-1.6395c0-.6174-.3961-1.0328-1.034-1.0384-.3356-.0056-.6826.0982-.9244.4648-.1813-.2897-.4679-.4648-.8696-.4648-.2802 0-.5554.0819-.7701.3878v-.3221h-.5718v2.6122h.5774v-1.4481c0-.4535.2532-.6943.6436-.6943.3797 0 .5724.2458.5724.6887v1.4537h.5774v-1.4481c0-.4535.2645-.6943.6436-.6943.3911 0 .5781.2458.5781.6887v1.4537z"/></g></svg>

<svg
	width="51"
	height="35"
	viewBox="0 0 51 35"
	fill="none"
	xmlns="http://www.w3.org/2000/svg"
>
	<rect
		x="0.5"
		y="0.5"
		width="49.6897"
		height="34"
		rx="3.5"
		fill="white"
		stroke="#F3F3F3"
	/>
	<path
		d="M29.9708 22.8244H21.3047V7.35352H29.9708V22.8244Z"
		fill="#6C6BBD"
	/>
	<path
		d="M21.8549 15.0891C21.8549 11.9507 23.3341 9.15521 25.6375 7.35365C23.9531 6.03626 21.8272 5.24995 19.5168 5.24995C14.0471 5.24995 9.61328 9.65501 9.61328 15.0891C9.61328 20.5232 14.0471 24.9282 19.5168 24.9282C21.8272 24.9282 23.9531 24.1419 25.6375 22.8245C23.3341 21.023 21.8549 18.2274 21.8549 15.0891Z"
		fill="#EB001B"
	/>
	<path
		d="M41.6626 15.0891C41.6626 20.5232 37.2288 24.9282 31.7591 24.9282C29.4487 24.9282 27.3228 24.1419 25.6377 22.8245C27.9418 21.023 29.421 18.2274 29.421 15.0891C29.421 11.9507 27.9418 9.15521 25.6377 7.35365C27.3228 6.03626 29.4487 5.24995 31.7591 5.24995C37.2288 5.24995 41.6626 9.65501 41.6626 15.0891Z"
		fill="#0099DF"
	/>
	<path
		d="M32.9036 27.1956C33.0188 27.1956 33.1845 27.2175 33.311 27.2669L33.1347 27.8024C33.0138 27.753 32.8929 27.7367 32.777 27.7367C32.403 27.7367 32.216 27.9769 32.216 28.4085V29.8735H31.6436V27.2613H32.2103V27.5784C32.3589 27.3489 32.5736 27.1956 32.9036 27.1956Z"
		fill="#231F20"
	/>
	<path
		d="M30.7887 27.7807H29.8536V28.9611C29.8536 29.2232 29.9468 29.3984 30.2333 29.3984C30.382 29.3984 30.569 29.3489 30.739 29.2507L30.904 29.7368C30.7226 29.8625 30.4367 29.9395 30.1893 29.9395C29.5123 29.9395 29.2762 29.5785 29.2762 28.9717V27.7807H28.7422V27.2615H29.2762V26.469H29.8536V27.2615H30.7887V27.7807Z"
		fill="#231F20"
	/>
	<path
			fill-rule="evenodd"
		clip-rule="evenodd"
		d="M24.1754 27.1958C24.9128 27.1958 25.4191 27.7532 25.4247 28.5676C25.4247 28.6433 25.4192 28.7135 25.4135 28.7842L25.4134 28.7859H23.4607C23.5432 29.2557 23.8788 29.4252 24.2472 29.4252C24.511 29.4252 24.7919 29.327 25.0116 29.1519L25.2925 29.5729C24.9732 29.8406 24.6105 29.9388 24.2144 29.9388C23.4273 29.9388 22.8662 29.3977 22.8662 28.5676C22.8662 27.7532 23.4052 27.1958 24.1754 27.1958ZM24.1648 27.7036C23.7574 27.7036 23.5269 27.9607 23.4658 28.3379H24.8304C24.77 27.9332 24.5332 27.7036 24.1648 27.7036Z"
		fill="#231F20"
	/>
	<path
		d="M27.9386 27.9283C27.7793 27.8295 27.455 27.7038 27.1193 27.7038C26.8057 27.7038 26.6187 27.8189 26.6187 28.0103C26.6187 28.1848 26.8164 28.2342 27.0639 28.2668L27.3334 28.3049C27.9058 28.3875 28.2522 28.6277 28.2522 29.0868C28.2522 29.5841 27.812 29.9395 27.0532 29.9395C26.6237 29.9395 26.2277 29.83 25.9141 29.6004L26.1836 29.1575C26.3763 29.3052 26.6628 29.4309 27.0589 29.4309C27.4493 29.4309 27.6584 29.3164 27.6584 29.1137C27.6584 28.9667 27.5098 28.8842 27.1962 28.841L26.9266 28.8028C26.3379 28.7203 26.0186 28.4582 26.0186 28.0322C26.0186 27.513 26.4481 27.1958 27.1137 27.1958C27.5318 27.1958 27.9115 27.289 28.1861 27.4692L27.9386 27.9283Z"
		fill="#231F20"
	/>
	<path
			fill-rule="evenodd"
		clip-rule="evenodd"
		d="M35.561 27.3015C35.3872 27.2308 35.1982 27.1958 34.9942 27.1958C34.7902 27.1958 34.6013 27.2308 34.4275 27.3015C34.2537 27.3716 34.1044 27.4685 33.9785 27.5918C33.8526 27.715 33.7537 27.8608 33.6819 28.0284C33.6101 28.1967 33.5742 28.3793 33.5742 28.5764C33.5742 28.7734 33.6101 28.9561 33.6819 29.1243C33.7537 29.292 33.8526 29.4384 33.9785 29.5616C34.1044 29.6848 34.2537 29.7812 34.4275 29.8519C34.6013 29.9219 34.7902 29.9569 34.9942 29.9569C35.1982 29.9569 35.3872 29.9219 35.561 29.8519C35.7348 29.7812 35.8853 29.6848 36.0118 29.5616C36.139 29.4384 36.2379 29.292 36.3097 29.1243C36.3815 28.9561 36.4174 28.7734 36.4174 28.5764C36.4174 28.3793 36.3815 28.1967 36.3097 28.0284C36.2379 27.8608 36.139 27.715 36.0118 27.5918C35.8853 27.4685 35.7348 27.3716 35.561 27.3015ZM34.666 27.7969C34.7674 27.7563 34.8763 27.7356 34.9941 27.7356C35.1118 27.7356 35.2214 27.7563 35.3221 27.7969C35.4235 27.8382 35.5117 27.8958 35.5854 27.9696C35.6603 28.0434 35.7182 28.1322 35.761 28.2354C35.8032 28.3386 35.824 28.4525 35.824 28.5763C35.824 28.7008 35.8032 28.8141 35.761 28.9173C35.7182 29.0205 35.6603 29.1093 35.5854 29.1831C35.5117 29.2569 35.4235 29.3145 35.3221 29.3558C35.2214 29.3971 35.1118 29.4171 34.9941 29.4171C34.8763 29.4171 34.7674 29.3971 34.666 29.3558C34.5652 29.3145 34.4777 29.2569 34.404 29.1831C34.3303 29.1093 34.2724 29.0205 34.2302 28.9173C34.188 28.8141 34.1672 28.7008 34.1672 28.5763C34.1672 28.4525 34.188 28.3386 34.2302 28.2354C34.2724 28.1322 34.3303 28.0434 34.404 27.9696C34.4777 27.8958 34.5652 27.8382 34.666 27.7969Z"
		fill="#231F20"
	/>
	<path
		fill-rule="evenodd"
		clip-rule="evenodd"
		d="M22.2524 27.2615V28.5676V29.8737H21.6806V29.5566C21.4986 29.7918 21.224 29.9394 20.85 29.9394C20.1126 29.9394 19.5352 29.3652 19.5352 28.5676C19.5352 27.7694 20.1126 27.1958 20.85 27.1958C21.224 27.1958 21.4986 27.3434 21.6806 27.5786V27.2615H22.2524ZM20.9211 27.7312C20.4262 27.7312 20.1233 28.1084 20.1233 28.5675C20.1233 29.0267 20.4262 29.4033 20.9211 29.4033C21.394 29.4033 21.7133 29.0429 21.7133 28.5675C21.7133 28.0921 21.394 27.7312 20.9211 27.7312Z"
		fill="#231F20"
	/>
	<path
		d="M19.0293 29.8735V28.234C19.0293 27.6166 18.6332 27.2012 17.9953 27.1956C17.6597 27.19 17.3127 27.2938 17.0709 27.6604C16.8896 27.3707 16.603 27.1956 16.2013 27.1956C15.9211 27.1956 15.6459 27.2775 15.4312 27.5834V27.2613H14.8594V29.8735H15.4368V28.4254C15.4368 27.9719 15.69 27.7311 16.0804 27.7311C16.4601 27.7311 16.6528 27.9769 16.6528 28.4198V29.8735H17.2302V28.4254C17.2302 27.9719 17.4947 27.7311 17.8738 27.7311C18.2649 27.7311 18.4519 27.9769 18.4519 28.4198V29.8735H19.0293V29.8735Z"
		fill="#231F20"
	/>
</svg>
